X:228
T:Pull The Knife And Stick It Again
R:jig
M:6/8
L:1/8
K:Emin
|: E2E GFE | DED DED | E2E GFE | ABG AFD |
E2E GFE | DEF DEF | G2E FED | DFD E3 :|
|: edB BAF | E2D DEF | edB BAF | AFA d2f |
edB BAF | E2D DEF | G2E FED | DFD E3 :|

